svgs/light/grid-horizontal.svg

<svg xmlns="http://www.w3.org/2000/svg" viewBox="0 0 448 512"><!--! Font Awesome Pro 6.6.0 by @fontawesome - https://fontawesome.com License - https://fontawesome.com/license (Commercial License) Copyright 2024 Fonticons, Inc. --><path d="M40 160c-4.4 0-8 3.6-8 8l0 48c0 4.4 3.6 8 8 8l48 0c4.4 0 8-3.6 8-8l0-48c0-4.4-3.6-8-8-8l-48 0zM0 168c0-22.1 17.9-40 40-40l48 0c22.1 0 40 17.9 40 40l0 48c0 22.1-17.9 40-40 40l-48 0c-22.1 0-40-17.9-40-40l0-48zM40 320c-4.4 0-8 3.6-8 8l0 48c0 4.4 3.6 8 8 8l48 0c4.4 0 8-3.6 8-8l0-48c0-4.4-3.6-8-8-8l-48 0zM0 328c0-22.1 17.9-40 40-40l48 0c22.1 0 40 17.9 40 40l0 48c0 22.1-17.9 40-40 40l-48 0c-22.1 0-40-17.9-40-40l0-48zM248 160l-48 0c-4.4 0-8 3.6-8 8l0 48c0 4.4 3.6 8 8 8l48 0c4.4 0 8-3.6 8-8l0-48c0-4.4-3.6-8-8-8zm-48-32l48 0c22.1 0 40 17.9 40 40l0 48c0 22.1-17.9 40-40 40l-48 0c-22.1 0-40-17.9-40-40l0-48c0-22.1 17.9-40 40-40zm0 192c-4.4 0-8 3.6-8 8l0 48c0 4.4 3.6 8 8 8l48 0c4.4 0 8-3.6 8-8l0-48c0-4.4-3.6-8-8-8l-48 0zm-40 8c0-22.1 17.9-40 40-40l48 0c22.1 0 40 17.9 40 40l0 48c0 22.1-17.9 40-40 40l-48 0c-22.1 0-40-17.9-40-40l0-48zM408 160l-48 0c-4.4 0-8 3.6-8 8l0 48c0 4.4 3.6 8 8 8l48 0c4.4 0 8-3.6 8-8l0-48c0-4.4-3.6-8-8-8zm-48-32l48 0c22.1 0 40 17.9 40 40l0 48c0 22.1-17.9 40-40 40l-48 0c-22.1 0-40-17.9-40-40l0-48c0-22.1 17.9-40 40-40zm0 192c-4.4 0-8 3.6-8 8l0 48c0 4.4 3.6 8 8 8l48 0c4.4 0 8-3.6 8-8l0-48c0-4.4-3.6-8-8-8l-48 0zm-40 8c0-22.1 17.9-40 40-40l48 0c22.1 0 40 17.9 40 40l0 48c0 22.1-17.9 40-40 40l-48 0c-22.1 0-40-17.9-40-40l0-48z"/></svg>

<svg xmlns="http://www.w3.org/2000/svg" viewBox="0 0 448 512"><!--! Font Awesome Pro 6.4.2 by @fontawesome - https://fontawesome.com License - https://fontawesome.com/license (Commercial License) Copyright 2023 Fonticons, Inc. --><path d="M40 160c-4.4 0-8 3.6-8 8v48c0 4.4 3.6 8 8 8H88c4.4 0 8-3.6 8-8V168c0-4.4-3.6-8-8-8H40zM0 168c0-22.1 17.9-40 40-40H88c22.1 0 40 17.9 40 40v48c0 22.1-17.9 40-40 40H40c-22.1 0-40-17.9-40-40V168zM40 320c-4.4 0-8 3.6-8 8v48c0 4.4 3.6 8 8 8H88c4.4 0 8-3.6 8-8V328c0-4.4-3.6-8-8-8H40zM0 328c0-22.1 17.9-40 40-40H88c22.1 0 40 17.9 40 40v48c0 22.1-17.9 40-40 40H40c-22.1 0-40-17.9-40-40V328zM248 160H200c-4.4 0-8 3.6-8 8v48c0 4.4 3.6 8 8 8h48c4.4 0 8-3.6 8-8V168c0-4.4-3.6-8-8-8zm-48-32h48c22.1 0 40 17.9 40 40v48c0 22.1-17.9 40-40 40H200c-22.1 0-40-17.9-40-40V168c0-22.1 17.9-40 40-40zm0 192c-4.4 0-8 3.6-8 8v48c0 4.4 3.6 8 8 8h48c4.4 0 8-3.6 8-8V328c0-4.4-3.6-8-8-8H200zm-40 8c0-22.1 17.9-40 40-40h48c22.1 0 40 17.9 40 40v48c0 22.1-17.9 40-40 40H200c-22.1 0-40-17.9-40-40V328zM408 160H360c-4.4 0-8 3.6-8 8v48c0 4.4 3.6 8 8 8h48c4.4 0 8-3.6 8-8V168c0-4.4-3.6-8-8-8zm-48-32h48c22.1 0 40 17.9 40 40v48c0 22.1-17.9 40-40 40H360c-22.1 0-40-17.9-40-40V168c0-22.1 17.9-40 40-40zm0 192c-4.4 0-8 3.6-8 8v48c0 4.4 3.6 8 8 8h48c4.4 0 8-3.6 8-8V328c0-4.4-3.6-8-8-8H360zm-40 8c0-22.1 17.9-40 40-40h48c22.1 0 40 17.9 40 40v48c0 22.1-17.9 40-40 40H360c-22.1 0-40-17.9-40-40V328z"/></svg>
